; generated by PrusaSlicer 2.6.1 on 2024-01-29 at 14:40:01 UTC


;
;

;
;

;
;

;
;
; 

; external perimeters extrusion width = 0.45mm
; perimeters extrusion width = 0.45mm
; infill extrusion width = 0.45mm
; solid infill extrusion width = 0.45mm
; top infill extrusion width = 0.40mm
; first layer extrusion width = 0.50mm

M73 P0 R352
M201 X2500 Y2500 Z200 E2500 ; sets maximum accelerations, mm/sec^2
M203 X200 Y200 Z40 E100 ; sets maximum feedrates, mm / sec
M204 P2000 R1200 T2000 ; sets acceleration (P, T) and retract acceleration (R), mm/sec^2
M205 X8.00 Y8.00 Z2.00 E10.00 ; sets the jerk limits, mm/sec
M205 S0 T0 ; sets the minimum extruding and travel feed rate, mm/sec
;TYPE:Custom
M17 ; enable steppers
M862.3 P "MK4" ; printer model check
M862.1 P0.4 ; nozzle diameter check
M115 U5.1.2+13478
M555 X64.5237 Y12.233 W120.953 H181.534

G90 ; use absolute coordinates
M83 ; extruder relative mode

M140 S60 ; set bed temp
M104 T0 S170 ; set extruder temp for bed leveling
M109 T0 R170 ; wait for temp

M84 E ; turn off E motor

G28 ; home all without mesh bed level

G1 X42 Y-4 Z5 F4800

M302 S160 ; lower cold extrusion limit to 160C


G1 E-2 F2400 ; retraction


M84 E ; turn off E motor

G29 P9 X10 Y-4 W32 H4

M106 S100

G0 Z40 F10000

M190 S60 ; wait for bed temp

M107

;
; MBL
;
M84 E ; turn off E motor
G29 P1 ; invalidate mbl & probe print area
G29 P1 X0 Y0 W50 H20 C ; probe near purge place
G29 P3.2 ; interpolate mbl probes
G29 P3.13 ; extrapolate mbl outside probe area
G29 A ; activate mbl

; prepare for purge
M104 S215
G0 X0 Y-4 Z15 F4800 ; move away and ready for the purge
M109 S215

G92 E0
M569 S0 E ; set spreadcycle mode for extruder

;
; Extrude purge line
;
G92 E0 ; reset extruder position
G1 E2 F2400 ; deretraction after the initial one before nozzle cleaning
G0 E7 X15 Z0.2 F500 ; purge
G0 X25 E4 F500 ; purge
G0 X35 E4 F650 ; purge
G0 X45 E4 F800 ; purge
G0 X48 Z0.05 F8000 ; wipe, move close to the bed
G0 X51 Z0.2 F8000 ; wipe, move quickly away from the bed

G92 E0
M221 S100 ; set flow to 100%
G21 ; set units to millimeters
G90 ; use absolute coordinates
M83 ; use relative distances for extrusion
M900 K0.05 ; Filament gcode



M142 S36 ; set heatbreak target temp
M107
;LAYER_CHANGE
;Z:0.2
;HEIGHT:0.2
;BEFORE_LAYER_CHANGE
G92 E0.0
;0.2


G1 E-.8 F2100
G1 Z.2 F720
;AFTER_LAYER_CHANGE
;0.2
; printing object f-mirror-Chamfer.stl id:0 copy 0
G1 Z.4
G1 X104.182 Y166.929 F12000
G1 Z.2 F720
G1 E.8 F1500
M204 P600
;TYPE:Perimeter
;WIDTH:0.499999
G1 F1200
G1 X104.457 Y167.151 E.01343
G1 X105.014 Y167.563 E.02633
G1 X105.76 Y167.969 E.03228
G1 X106.609 Y168.284 E.03442
G1 X107.262 Y168.431 E.02544
G1 X108.338 Y168.526 E.04105
G1 X184.463 Y168.203 E2.89325
G1 X184.565 Y192.355 E.91794
G1 X66.178 Y192.856 E4.49949
G1 X65.435 Y17.297 E6.6724
G1 X101.524 Y17.144 E1.37162
G1 X101.835 Y90.477 E2.78714
G1 X101.875 Y91.096 E.02357
G1 X101.983 Y91.734 E.02459
G1 X102.112 Y92.229 E.01944
G1 X102.366 Y92.901 E.0273
G1 X102.875 Y93.827 E.04016
G1 X102.947 Y93.933 E.00487
M73 P0 R351
G1 X103.633 Y94.754 E.04066
G1 X104.146 Y95.219 E.02631
G1 X104.72 Y95.624 E.0267
G1 X105.675 Y96.119 E.04088
G1 X106.262 Y96.327 E.02367
G1 X107.455 Y96.554 E.04615
G1 X108.028 Y96.58 E.0218
G1 X179.251 Y96.278 E2.70695
G1 X179.353 Y120.43 E.91794
G1 X108.131 Y120.731 E2.70691
G1 X107.236 Y120.815 E.03417
G1 X106.562 Y120.945 E.02609
G1 X105.945 Y121.149 E.0247
G1 X105.476 Y121.35 E.01939
G1 X104.855 Y121.7 E.02709
G1 X103.998 Y122.353 E.04095
G1 X103.532 Y122.827 E.02526
G1 X103.187 Y123.256 E.02092
G1 X102.822 Y123.814 E.02534
G1 X102.55 Y124.341 E.02254
G1 X102.307 Y124.961 E.02531
G1 X102.112 Y125.696 E.0289
G1 X102.015 Y126.353 E.02524
G1 X101.989 Y126.93 E.02195
G1 X102.137 Y161.914 E1.32962
G1 X102.17 Y162.813 E.03419
G1 X102.249 Y163.466 E.025
G1 X102.364 Y163.985 E.0202
G1 X102.763 Y165.049 E.04319
G1 X103.292 Y165.931 E.03909
G1 X103.76 Y166.517 E.0285
G1 X104.136 Y166.89 E.02013
M204 P1000
G1 X105.032 Y167.011 F12000
M204 P600
;TYPE:External perimeter
G1 F1200
G1 X105.235 Y167.164 E.00966
G1 X105.921 Y167.542 E.02977
G1 X106.713 Y167.838 E.03213
G1 X107.316 Y167.977 E.02352
G1 X108.336 Y168.069 E.03892
G1 X184.918 Y167.744 E2.91062
G1 X185.024 Y192.81 E.95267
G1 X65.723 Y193.315 E4.53423
G1 X64.976 Y16.842 E6.70714
G1 X101.979 Y16.685 E1.40636
G1 X102.292 Y90.451 E2.8036
G1 X102.325 Y91.02 E.02166
G1 X102.541 Y92.072 E.04082
G1 X102.767 Y92.681 E.02469
G1 X103.275 Y93.607 E.04014
G1 X103.942 Y94.418 E.03991
G1 X104.413 Y94.848 E.02424
G1 X104.935 Y95.221 E.02438
G1 X105.828 Y95.689 E.03832
G1 X106.384 Y95.886 E.02242
G1 X107.477 Y96.098 E.04232
G1 X108.026 Y96.123 E.02089
G1 X179.706 Y95.819 E2.72431
G1 X179.812 Y120.885 E.95267
G1 X108.133 Y121.188 E2.72428
G1 X107.319 Y121.265 E.03108
G1 X106.705 Y121.379 E.02373
G1 X105.697 Y121.75 E.04082
G1 X105.127 Y122.067 E.02479
G1 X104.322 Y122.674 E.03832
G1 X103.887 Y123.115 E.02354
G1 X103.568 Y123.508 E.01924
G1 X103.227 Y124.026 E.02357
G1 X102.974 Y124.51 E.02076
M73 P0 R350
G1 X102.748 Y125.081 E.02334
G1 X102.564 Y125.766 E.02696
G1 X102.471 Y126.374 E.02338
G1 X102.446 Y126.928 E.02108
G1 X102.597 Y162.401 E1.34821
G1 X102.658 Y163.18 E.0297
G1 X102.794 Y163.829 E.0252
G1 X103.159 Y164.821 E.04017
G1 X103.651 Y165.648 E.03657
G1 X104.082 Y166.192 E.02638
G1 X104.47 Y166.577 E.02077
G1 X104.984 Y166.975 E.02471
M204 P1000
G1 X104.996 Y167.263 F12000
G1 E-.64 F2100
;WIPE_START
G1 F9600
G1 X105.235 Y167.164 E-.06529
G1 X105.634 Y167.384 E-.09471
;WIPE_END
G1 Z.4 F720
G1 X81.043 Y154.283 F12000
G1 Z.2 F720
G1 E.8 F1500
M204 P600
;TYPE:Perimeter
G1 F1200
G1 X81.701 Y153.894 E.02905
G1 X82.412 Y153.562 E.02982
G1 X83.151 Y153.298 E.02983
G1 X83.927 Y153.102 E.03042
G1 X84.702 Y152.983 E.0298
G1 X85.484 Y152.938 E.02977
G1 X86.284 Y152.968 E.03043
G1 X87.061 Y153.072 E.02979
G1 X87.823 Y153.249 E.02973
G1 X88.581 Y153.502 E.03037
G1 X89.297 Y153.82 E.02978
G1 X89.993 Y154.212 E.03036
G1 X90.635 Y154.659 E.02973
G1 X91.244 Y155.176 E.03036
G1 X91.79 Y155.737 E.02975
G1 X92.29 Y156.36 E.03036
G1 X92.712 Y156.999 E.0291
G1 X93.086 Y157.704 E.03033
G1 X93.386 Y158.427 E.02975
G1 X93.616 Y159.174 E.02971
G1 X93.778 Y159.957 E.03039
G1 X93.863 Y160.734 E.02971
G1 X93.874 Y161.516 E.02972
G1 X93.831 Y162.051 E.0204
G1 X93.733 Y162.746 E.02668
G1 X93.545 Y163.547 E.03127
G1 X93.178 Y164.582 E.04174
G1 X92.83 Y165.284 E.02978
G1 X92.418 Y165.948 E.0297
G1 X91.976 Y166.53 E.02778
G1 X91.404 Y167.158 E.03228
G1 X90.999 Y167.522 E.0207
G1 X90.179 Y168.155 E.03937
G1 X89.508 Y168.558 E.02975
G1 X88.787 Y168.903 E.03038
G1 X88.052 Y169.172 E.02975
G1 X87.294 Y169.37 E.02978
G1 X86.504 Y169.498 E.03042
G1 X85.723 Y169.549 E.02975
G1 X84.939 Y169.526 E.02981
G1 X84.145 Y169.427 E.03041
G1 X83.363 Y169.251 E.03046
G1 X82.633 Y169.013 E.02918
G1 X81.899 Y168.694 E.03042
G1 X81.212 Y168.314 E.02984
G1 X80.565 Y167.872 E.02978
G1 X79.95 Y167.359 E.03044
G1 X79.398 Y166.801 E.02983
G1 X78.902 Y166.195 E.02976
G1 X78.457 Y165.531 E.03038
G1 X78.086 Y164.843 E.02971
G1 X77.775 Y164.109 E.0303
G1 X77.541 Y163.367 E.02957
G1 X77.368 Y162.543 E.032
G1 X77.286 Y161.822 E.02758
G1 X77.273 Y160.893 E.03531
G1 X77.343 Y160.109 E.02992
G1 X77.483 Y159.356 E.02911
G1 X77.703 Y158.583 E.03055
G1 X77.983 Y157.866 E.02925
G1 X78.338 Y157.162 E.02997
G1 X78.758 Y156.493 E.03002
G1 X79.241 Y155.866 E.03008
G1 X79.782 Y155.288 E.03009
G1 X80.375 Y154.764 E.03008
G1 X80.992 Y154.315 E.029
M204 P1000
G1 X81.424 Y154.587 F12000
M204 P600
;TYPE:External perimeter
G1 F1200
G1 X81.932 Y154.289 E.02238
G1 X82.604 Y153.977 E.02816
G1 X83.303 Y153.729 E.02819
G1 X84.037 Y153.546 E.02875
G1 X84.77 Y153.435 E.02818
G1 X85.509 Y153.394 E.02813
G1 X86.265 Y153.425 E.02876
G1 X86.999 Y153.525 E.02815
G1 X87.719 Y153.693 E.0281
G1 X88.435 Y153.935 E.02872
G1 X89.11 Y154.237 E.0281
G1 X89.767 Y154.609 E.02869
G1 X90.372 Y155.033 E.02808
G1 X90.947 Y155.524 E.02874
G1 X91.462 Y156.055 E.02811
G1 X91.933 Y156.645 E.02869
G1 X92.329 Y157.249 E.02745
G1 X92.682 Y157.917 E.02872
G1 X92.963 Y158.6 E.02807
G1 X93.179 Y159.307 E.0281
G1 X93.33 Y160.047 E.0287
G1 X93.408 Y160.782 E.02809
G1 X93.417 Y161.521 E.02809
G1 X93.354 Y162.274 E.02872
G1 X93.222 Y163.001 E.02808
G1 X93.023 Y163.712 E.02806
G1 X92.752 Y164.417 E.02871
G1 X92.421 Y165.079 E.02813
G1 X92.03 Y165.705 E.02805
G1 X91.613 Y166.252 E.02614
G1 X91.069 Y166.847 E.03064
G1 X90.696 Y167.18 E.019
G1 X89.909 Y167.786 E.03775
G1 X89.274 Y168.166 E.02813
G1 X88.591 Y168.49 E.02873
G1 X87.896 Y168.742 E.0281
G1 X87.18 Y168.927 E.02811
G1 X86.433 Y169.046 E.02875
G1 X85.694 Y169.093 E.02814
G1 X84.954 Y169.069 E.02814
G1 X84.203 Y168.974 E.02877
G1 X83.465 Y168.806 E.02877
G1 X82.776 Y168.579 E.02757
G1 X82.083 Y168.276 E.02875
G1 X81.435 Y167.915 E.02819
G1 X80.824 Y167.495 E.02818
G1 X80.244 Y167.009 E.02876
G1 X79.724 Y166.481 E.02817
G1 X79.257 Y165.907 E.02812
G1 X78.838 Y165.278 E.02872
G1 X78.489 Y164.627 E.02807
G1 X78.197 Y163.933 E.02862
G1 X77.978 Y163.231 E.02795
G1 X77.822 Y162.491 E.02874
G1 X77.74 Y161.77 E.02758
G1 X77.73 Y160.889 E.03349
G1 X77.798 Y160.152 E.02813
G1 X77.932 Y159.441 E.0275
G1 X78.142 Y158.71 E.02891
G1 X78.408 Y158.034 E.02761
G1 X78.745 Y157.369 E.02833
G1 X79.144 Y156.738 E.02837
G1 X79.602 Y156.147 E.02842
G1 X80.114 Y155.602 E.02842
G1 X80.677 Y155.107 E.02849
G1 X81.278 Y154.672 E.0282
G1 X81.373 Y154.617 E.00417
M204 P1000
G1 X81.411 Y154.187 F12000
G1 E-.64 F2100
;WIPE_START
G1 F9600
G1 X81.932 Y154.289 E-.13469
G1 X82.042 Y154.238 E-.02531
;WIPE_END
G1 Z.4 F720
G1 X79.374 Y66.772 F12000
G1 Z.2 F720
G1 E.8 F1500
M204 P600
;TYPE:Perimeter
G1 F1200
G1 X78.902 Y66.195 E.02833
G1 X78.457 Y65.531 E.03038
G1 X78.086 Y64.843 E.02971
G1 X77.775 Y64.109 E.0303
G1 X77.541 Y63.367 E.02957
G1 X77.378 Y62.607 E.02954
G1 X77.286 Y61.822 E.03004
G1 X77.273 Y60.893 E.03531
G1 X77.343 Y60.109 E.02992
G1 X77.483 Y59.356 E.02911
G1 X77.703 Y58.583 E.03055
G1 X77.983 Y57.866 E.02925
G1 X78.338 Y57.162 E.02997
G1 X78.758 Y56.493 E.03002
G1 X79.241 Y55.866 E.03008
G1 X79.782 Y55.288 E.03009
G1 X80.375 Y54.764 E.03008
G1 X81.011 Y54.302 E.02988
G1 X81.701 Y53.894 E.03047
G1 X82.412 Y53.562 E.02982
G1 X83.151 Y53.298 E.02983
G1 X83.927 Y53.102 E.03042
G1 X84.702 Y52.983 E.0298
G1 X85.484 Y52.938 E.02977
G1 X86.284 Y52.968 E.03043
G1 X87.061 Y53.072 E.02979
G1 X87.823 Y53.249 E.02973
G1 X88.581 Y53.502 E.03037
G1 X89.297 Y53.82 E.02978
G1 X89.993 Y54.212 E.03036
G1 X90.635 Y54.659 E.02973
G1 X91.244 Y55.176 E.03036
G1 X91.79 Y55.737 E.02975
G1 X92.29 Y56.36 E.03036
G1 X92.712 Y56.999 E.0291
G1 X93.086 Y57.704 E.03033
G1 X93.386 Y58.427 E.02975
G1 X93.616 Y59.174 E.02971
G1 X93.778 Y59.957 E.03039
G1 X93.863 Y60.734 E.02971
G1 X93.874 Y61.516 E.02972
G1 X93.809 Y62.312 E.03035
G1 X93.672 Y63.083 E.02976
G1 X93.463 Y63.836 E.0297
G1 X93.178 Y64.582 E.03035
G1 X92.83 Y65.284 E.02978
G1 X92.418 Y65.948 E.0297
G1 X91.935 Y66.584 E.03035
G1 X91.404 Y67.158 E.02972
G1 X90.809 Y67.691 E.03036
G1 X90.179 Y68.155 E.02974
G1 X89.508 Y68.558 E.02975
G1 X88.787 Y68.903 E.03038
G1 X88.052 Y69.172 E.02975
G1 X87.294 Y69.37 E.02978
G1 X86.504 Y69.498 E.03042
G1 X85.722 Y69.549 E.02978
G1 X84.939 Y69.526 E.02977
G1 X84.145 Y69.427 E.03041
G1 X83.363 Y69.251 E.03046
G1 X82.633 Y69.013 E.02918
G1 X81.899 Y68.694 E.03042
G1 X81.212 Y68.314 E.02984
G1 X80.565 Y67.872 E.02978
G1 X79.95 Y67.359 E.03044
G1 X79.414 Y66.817 E.02897
M204 P1000
G1 X80.049 Y66.811 F12000
M204 P600
;TYPE:External perimeter
G1 F1200
G1 X79.724 Y66.481 E.0176
G1 X79.257 Y65.907 E.02812
G1 X78.838 Y65.278 E.02872
G1 X78.489 Y64.628 E.02804
G1 X78.197 Y63.933 E.02865
G1 X77.978 Y63.231 E.02795
G1 X77.825 Y62.513 E.0279
G1 X77.74 Y61.77 E.02842
G1 X77.73 Y60.889 E.03349
G1 X77.798 Y60.152 E.02813
G1 X77.932 Y59.441 E.0275
G1 X78.142 Y58.71 E.02891
G1 X78.408 Y58.034 E.02761
G1 X78.745 Y57.369 E.02833
G1 X79.144 Y56.738 E.02837
G1 X79.602 Y56.147 E.02842
G1 X80.115 Y55.601 E.02847
G1 X80.677 Y55.107 E.02844
G1 X81.278 Y54.672 E.0282
G1 X81.932 Y54.289 E.0288
G1 X82.604 Y53.977 E.02816
G1 X83.303 Y53.729 E.02819
G1 X84.037 Y53.546 E.02875
G1 X84.77 Y53.435 E.02818
G1 X85.509 Y53.394 E.02813
G1 X86.265 Y53.425 E.02876
G1 X86.999 Y53.525 E.02815
G1 X87.719 Y53.693 E.0281
G1 X88.435 Y53.935 E.02872
G1 X89.11 Y54.237 E.0281
G1 X89.767 Y54.609 E.02869
G1 X90.372 Y55.033 E.02808
G1 X90.947 Y55.524 E.02874
G1 X91.462 Y56.055 E.02811
G1 X91.933 Y56.645 E.02869
G1 X92.329 Y57.249 E.02745
G1 X92.682 Y57.917 E.02872
G1 X92.963 Y58.6 E.02807
G1 X93.179 Y59.307 E.0281
G1 X93.33 Y60.047 E.0287
G1 X93.408 Y60.782 E.02809
G1 X93.417 Y61.521 E.02809
G1 X93.354 Y62.274 E.02872
G1 X93.222 Y63.001 E.02808
G1 X93.023 Y63.712 E.02806
G1 X92.752 Y64.417 E.02871
G1 X92.421 Y65.079 E.02813
G1 X92.03 Y65.705 E.02805
G1 X91.572 Y66.305 E.02869
G1 X91.069 Y66.847 E.0281
G1 X90.505 Y67.35 E.02872
G1 X89.909 Y67.786 E.02807
G1 X89.274 Y68.166 E.02813
G1 X88.591 Y68.49 E.02873
G1 X87.896 Y68.742 E.0281
G1 X87.18 Y68.927 E.02811
G1 X86.433 Y69.046 E.02875
G1 X85.694 Y69.093 E.02814
G1 X84.954 Y69.069 E.02814
G1 X84.203 Y68.974 E.02877
G1 X83.465 Y68.806 E.02877
G1 X82.776 Y68.579 E.02757
G1 X82.083 Y68.276 E.02875
G1 X81.435 Y67.915 E.02819
G1 X80.824 Y67.495 E.02818
G1 X80.244 Y67.009 E.02876
G1 X80.091 Y66.854 E.00828
M204 P1000
G1 X79.664 Y66.92 F12000
G1 E-.64 F2100
;WIPE_START
G1 F9600
G1 X79.724 Y66.481 E-.10874
G1 X79.568 Y66.29 E-.05126
;WIPE_END
G1 Z.4 F720
G1 X179.049 Y97.3 F12000
G1 Z.2 F720
G1 E.8 F1500
M204 P600
;TYPE:Solid infill
;WIDTH:0.500529
G1 F1200
G1 X178.442 Y96.693 E.03266
G1 X177.798 Y96.696 E.0245
G1 X178.845 Y97.744 E.05637
G1 X178.848 Y98.393 E.02469
G1 X177.153 Y96.699 E.09118
G1 X176.509 Y96.701 E.0245
G1 X178.851 Y99.043 E.12603
G1 X178.854 Y99.693 E.02473
G1 X175.865 Y96.704 E.16084
G1 X175.22 Y96.707 E.02454
G1 X178.856 Y100.343 E.19566
G1 X178.859 Y100.993 E.02473
G1 X174.576 Y96.71 E.23047
G1 X173.931 Y96.712 E.02454
G1 X178.862 Y101.643 E.26534
G1 X178.865 Y102.293 E.02473
G1 X173.287 Y96.715 E.30016
G1 X172.642 Y96.718 E.02454
G1 X178.867 Y102.943 E.33498
G1 X178.87 Y103.593 E.02473
G1 X171.998 Y96.721 E.36979
G1 X171.354 Y96.723 E.0245
G1 X178.873 Y104.243 E.40463
G1 X178.876 Y104.893 E.02473
G1 X170.709 Y96.726 E.43948
G1 X170.065 Y96.729 E.0245
G1 X178.878 Y105.542 E.47424
G1 X178.881 Y106.192 E.02473
G1 X169.42 Y96.731 E.50911
G1 X168.776 Y96.734 E.0245
G1 X178.884 Y106.842 E.54392
G1 X178.887 Y107.492 E.02473
G1 X168.131 Y96.737 E.57877
G1 X167.487 Y96.74 E.0245
G1 X178.889 Y108.142 E.61356
G1 X178.892 Y108.792 E.02473
G1 X166.843 Y96.742 E.6484
G1 X166.198 Y96.745 E.02454
G1 X178.895 Y109.442 E.68324
G1 X178.898 Y110.092 E.02473
G1 X165.554 Y96.748 E.71806
G1 X164.909 Y96.751 E.02454
G1 X178.9 Y110.742 E.75287
G1 X178.903 Y111.392 E.02473
G1 X164.265 Y96.753 E.78772
G1 X163.62 Y96.756 E.02454
G1 X178.906 Y112.042 E.82256
G1 X178.909 Y112.691 E.02469
G1 X162.976 Y96.759 E.85735
G1 X162.332 Y96.761 E.0245
G1 X178.911 Y113.341 E.89216
G1 X178.914 Y113.991 E.02473
G1 X161.687 Y96.764 E.92701
G1 X161.043 Y96.767 E.0245
G1 X178.917 Y114.641 E.96182
G1 X178.92 Y115.291 E.02473
G1 X160.398 Y96.77 E.99667
G1 X159.754 Y96.772 E.0245
G1 X178.923 Y115.941 E1.03151
G1 X178.925 Y116.591 E.02473
G1 X159.109 Y96.775 E1.06632
G1 X158.465 Y96.778 E.0245
G1 X178.928 Y117.241 E1.10114
G1 X178.931 Y117.891 E.02473
G1 X157.821 Y96.781 E1.13596
G1 X157.176 Y96.783 E.02454
G1 X178.934 Y118.541 E1.17083
G1 X178.936 Y119.191 E.02473
G1 X156.532 Y96.786 E1.20562
G1 X155.887 Y96.789 E.02454
G1 X178.939 Y119.84 E1.24043
G1 X178.94 Y120.02 E.00685
G1 X178.473 Y120.022 E.01777
G1 X155.243 Y96.791 E1.25006
G1 X154.598 Y96.794 E.02454
G1 X177.829 Y120.025 E1.25009
G1 X177.185 Y120.028 E.0245
G1 X153.954 Y96.797 E1.25009
G1 X153.31 Y96.8 E.0245
G1 X176.54 Y120.03 E1.25004
G1 X175.896 Y120.033 E.0245
G1 X152.665 Y96.802 E1.25009
G1 X152.021 Y96.805 E.0245
G1 X175.251 Y120.036 E1.25006
G1 X174.607 Y120.038 E.0245
G1 X151.376 Y96.808 E1.25006
G1 X150.732 Y96.811 E.0245
G1 X173.963 Y120.041 E1.25006
G1 X173.318 Y120.044 E.02454
