; generated by PrusaSlicer 2.6.1 on 2024-01-25 at 20:20:28 UTC


;
;

;
;

;
;

;
;
; 

; external perimeters extrusion width = 0.45mm
; perimeters extrusion width = 0.45mm
; infill extrusion width = 0.45mm
; solid infill extrusion width = 0.45mm
; top infill extrusion width = 0.40mm
; first layer extrusion width = 0.50mm

M73 P0 R36
M201 X2500 Y2500 Z200 E2500 ; sets maximum accelerations, mm/sec^2
M203 X200 Y200 Z40 E100 ; sets maximum feedrates, mm / sec
M204 P2000 R1200 T2000 ; sets acceleration (P, T) and retract acceleration (R), mm/sec^2
M205 X8.00 Y8.00 Z2.00 E10.00 ; sets the jerk limits, mm/sec
M205 S0 T0 ; sets the minimum extruding and travel feed rate, mm/sec
;TYPE:Custom
M17 ; enable steppers
M862.3 P "MK4" ; printer model check
M862.1 P0.4 ; nozzle diameter check
M115 U5.1.2+13478
M555 X103.435 Y72.1025 W40 H54

G90 ; use absolute coordinates
M83 ; extruder relative mode

M140 S60 ; set bed temp
M104 T0 S170 ; set extruder temp for bed leveling
M109 T0 R170 ; wait for temp

M84 E ; turn off E motor

G28 ; home all without mesh bed level

G1 X42 Y-4 Z5 F4800

M302 S160 ; lower cold extrusion limit to 160C


G1 E-2 F2400 ; retraction


M84 E ; turn off E motor

G29 P9 X10 Y-4 W32 H4

M106 S100

G0 Z40 F10000

M190 S60 ; wait for bed temp

M107

;
; MBL
;
M84 E ; turn off E motor
G29 P1 ; invalidate mbl & probe print area
G29 P1 X0 Y0 W50 H20 C ; probe near purge place
G29 P3.2 ; interpolate mbl probes
G29 P3.13 ; extrapolate mbl outside probe area
G29 A ; activate mbl

; prepare for purge
M104 S215
G0 X0 Y-4 Z15 F4800 ; move away and ready for the purge
M109 S215

G92 E0
M569 S0 E ; set spreadcycle mode for extruder

;
; Extrude purge line
;
G92 E0 ; reset extruder position
G1 E2 F2400 ; deretraction after the initial one before nozzle cleaning
G0 E7 X15 Z0.2 F500 ; purge
G0 X25 E4 F500 ; purge
G0 X35 E4 F650 ; purge
G0 X45 E4 F800 ; purge
G0 X48 Z0.05 F8000 ; wipe, move close to the bed
G0 X51 Z0.2 F8000 ; wipe, move quickly away from the bed

G92 E0
M221 S100 ; set flow to 100%
G21 ; set units to millimeters
G90 ; use absolute coordinates
M83 ; use relative distances for extrusion
M900 K0.05 ; Filament gcode



M142 S36 ; set heatbreak target temp
M107
;LAYER_CHANGE
;Z:0.2
;HEIGHT:0.2
;BEFORE_LAYER_CHANGE
G92 E0.0
;0.2


G1 E-.8 F2100
G1 Z.2 F720
;AFTER_LAYER_CHANGE
;0.2
; printing object s_cb3.stl id:0 copy 0
G1 Z.4
G1 X142.528 Y125.195 F12000
G1 Z.2 F720
G1 E.8 F1500
M204 P600
;TYPE:Perimeter
;WIDTH:0.499999
G1 F1200
G1 X104.342 Y125.195 E1.45131
G1 X104.342 Y77.01 E1.83133
G1 X142.528 Y77.01 E1.45131
G1 X142.528 Y125.135 E1.82905
M204 P1000
G1 X142.985 Y125.653 F12000
M204 P600
;TYPE:External perimeter
G1 F1200
G1 X103.885 Y125.653 E1.48605
G1 X103.885 Y76.553 E1.86611
G1 X142.985 Y76.553 E1.48605
G1 X142.985 Y125.593 E1.86383
M204 P1000
G1 X142.603 Y125.535 F12000
G1 E-.64 F2100
;WIPE_START
G1 F9600
G1 X142.215 Y125.594 E-.16
;WIPE_END
G1 Z.4 F720
G1 X120.895 Y85.85 F12000
G1 Z.2 F720
M73 P1 R36
G1 E.8 F1500
M204 P600
;TYPE:Perimeter
G1 F1200
G1 X121.434 Y85.348 E.02799
G1 X122.151 Y84.949 E.03119
G1 X122.943 Y84.734 E.03119
G1 X123.764 Y84.714 E.03121
G1 X124.565 Y84.891 E.03118
G1 X125.301 Y85.254 E.03119
G1 X125.928 Y85.784 E.0312
G1 X126.411 Y86.448 E.03121
G1 X126.72 Y87.208 E.03118
G1 X126.839 Y88.02 E.03119
G1 X126.76 Y88.837 E.0312
G1 X126.488 Y89.611 E.03118
G1 X126.038 Y90.298 E.03121
G1 X125.437 Y90.857 E.03119
G1 X124.72 Y91.256 E.03119
G1 X123.928 Y91.471 E.03119
G1 X123.107 Y91.491 E.03121
G1 X122.306 Y91.314 E.03118
G1 X121.57 Y90.951 E.03119
G1 X120.942 Y90.421 E.03123
G1 X120.46 Y89.757 E.03118
G1 X120.15 Y88.997 E.0312
G1 X120.032 Y88.185 E.03119
G1 X120.111 Y87.368 E.0312
G1 X120.383 Y86.594 E.03118
G1 X120.851 Y85.89 E.03213
M204 P1000
G1 X121.361 Y86.029 F12000
M204 P600
;TYPE:External perimeter
G1 F1200
G1 X121.737 Y85.69 E.01924
G1 X122.364 Y85.354 E.02704
G1 X123.052 Y85.177 E.027
G1 X123.764 Y85.171 E.02706
G1 X124.456 Y85.334 E.02702
G1 X125.088 Y85.659 E.02701
G1 X125.625 Y86.126 E.02705
G1 X126.035 Y86.707 E.02703
G1 X126.293 Y87.37 E.02704
G1 X126.385 Y88.075 E.02702
G1 X126.306 Y88.782 E.02704
G1 X126.06 Y89.449 E.02702
G1 X125.662 Y90.038 E.02702
G1 X125.134 Y90.515 E.02704
G1 X124.507 Y90.851 E.02704
G1 X123.818 Y91.028 E.02704
G1 X123.107 Y91.034 E.02702
G1 X122.415 Y90.871 E.02702
G1 X121.782 Y90.546 E.02704
G1 X121.246 Y90.079 E.02702
G1 X120.836 Y89.498 E.02703
G1 X120.578 Y88.835 E.02704
G1 X120.485 Y88.13 E.02703
G1 X120.565 Y87.423 E.02704
G1 X120.811 Y86.756 E.02702
G1 X121.209 Y86.167 E.02702
G1 X121.317 Y86.07 E.00552
M204 P1000
G1 X121.253 Y85.644 F12000
G1 E-.64 F2100
;WIPE_START
G1 F9600
G1 X121.737 Y85.69 E-.1177
G1 X121.916 Y85.594 E-.0423
;WIPE_END
G1 Z.4 F720
G1 X126.443 Y112.526 F12000
G1 Z.2 F720
G1 E.8 F1500
M204 P600
;TYPE:Perimeter
G1 F1200
G1 X126.72 Y113.208 E.02798
G1 X126.839 Y114.02 E.03119
G1 X126.76 Y114.837 E.0312
G1 X126.488 Y115.611 E.03118
G1 X126.038 Y116.298 E.03121
G1 X125.437 Y116.857 E.03119
G1 X124.72 Y117.256 E.03119
G1 X123.928 Y117.471 E.03119
G1 X123.107 Y117.491 E.03121
G1 X122.306 Y117.314 E.03118
G1 X121.57 Y116.951 E.03119
G1 X120.942 Y116.421 E.03123
G1 X120.46 Y115.757 E.03118
G1 X120.15 Y114.997 E.0312
G1 X120.032 Y114.185 E.03119
G1 X120.111 Y113.368 E.0312
G1 X120.383 Y112.594 E.03118
G1 X120.833 Y111.907 E.03121
G1 X121.434 Y111.348 E.03119
G1 X122.151 Y110.949 E.03119
G1 X122.943 Y110.734 E.03119
G1 X123.764 Y110.714 E.03121
G1 X124.565 Y110.891 E.03118
G1 X124.72 Y110.949 E.00629
G1 X125.301 Y111.254 E.02494
G1 X125.928 Y111.784 E.0312
G1 X126.42 Y112.47 E.03208
M204 P1000
G1 X125.98 Y112.63 F12000
M204 P600
;TYPE:External perimeter
G1 F1200
G1 X126.035 Y112.707 E.0036
G1 X126.293 Y113.37 E.02704
G1 X126.385 Y114.075 E.02702
G1 X126.306 Y114.782 E.02704
G1 X126.06 Y115.449 E.02702
G1 X125.662 Y116.038 E.02702
G1 X125.134 Y116.515 E.02704
G1 X124.507 Y116.851 E.02704
G1 X123.818 Y117.028 E.02704
G1 X123.107 Y117.034 E.02702
G1 X122.415 Y116.871 E.02702
G1 X121.782 Y116.546 E.02704
G1 X121.246 Y116.079 E.02702
G1 X120.836 Y115.498 E.02703
G1 X120.578 Y114.835 E.02704
G1 X120.485 Y114.13 E.02703
G1 X120.565 Y113.423 E.02704
G1 X120.811 Y112.756 E.02702
G1 X121.209 Y112.167 E.02702
G1 X121.737 Y111.69 E.02704
G1 X122.364 Y111.354 E.02704
G1 X123.052 Y111.177 E.027
G1 X123.764 Y111.171 E.02706
G1 X124.456 Y111.334 E.02702
G1 X125.088 Y111.659 E.02701
G1 X125.625 Y112.126 E.02705
G1 X125.946 Y112.581 E.02116
M204 P1000
G1 X126.074 Y112.618 F12000
G1 E-.64 F2100
;WIPE_START
G1 F9600
G1 X126.035 Y112.707 E-.03206
G1 X126.258 Y113.281 E-.12794
;WIPE_END
G1 Z.4 F720
G1 X141.395 Y77.215 F12000
G1 Z.2 F720
G1 E.8 F1500
M204 P600
;TYPE:Solid infill
;WIDTH:0.501684
G1 F1200
G1 X142.117 Y77.937 E.03895
G1 X142.117 Y78.586 E.02476
G1 X140.952 Y77.421 E.06285
G1 X140.303 Y77.421 E.02476
G1 X142.117 Y79.235 E.09786
G1 X142.117 Y79.884 E.02476
G1 X139.654 Y77.421 E.13287
G1 X139.006 Y77.421 E.02472
G1 X142.117 Y80.532 E.16783
G1 X142.117 Y81.181 E.02476
G1 X138.357 Y77.421 E.20284
G1 X137.708 Y77.421 E.02476
G1 X142.117 Y81.83 E.23785
G1 X142.117 Y82.479 E.02476
G1 X137.059 Y77.421 E.27286
G1 X136.41 Y77.421 E.02476
G1 X142.117 Y83.127 E.30785
G1 X142.117 Y83.776 E.02476
G1 X135.762 Y77.421 E.34283
G1 X135.113 Y77.421 E.02476
G1 X142.117 Y84.425 E.37785
G1 X142.117 Y85.074 E.02476
G1 X134.464 Y77.421 E.41286
G1 X133.815 Y77.421 E.02476
G1 X142.117 Y85.723 E.44787
G1 X142.117 Y86.371 E.02472
G1 X133.166 Y77.421 E.48285
G1 X132.518 Y77.421 E.02472
G1 X142.117 Y87.02 E.51784
G1 X142.117 Y87.669 E.02476
G1 X131.869 Y77.421 E.55285
G1 X131.22 Y77.421 E.02476
G1 X142.117 Y88.318 E.58786
G1 X142.117 Y88.967 E.02476
G1 X130.571 Y77.421 E.62287
G1 X129.923 Y77.421 E.02472
G1 X142.117 Y89.615 E.65783
G1 X142.117 Y90.264 E.02476
G1 X129.274 Y77.421 E.69284
G1 X128.625 Y77.421 E.02476
G1 X142.117 Y90.913 E.72785
G1 X142.117 Y91.562 E.02476
G1 X127.976 Y77.421 E.76287
G1 X127.327 Y77.421 E.02476
G1 X142.117 Y92.211 E.79788
G1 X142.117 Y92.859 E.02472
G1 X126.679 Y77.421 E.83284
G1 X126.03 Y77.421 E.02476
G1 X142.117 Y93.508 E.86785
G1 X142.117 Y94.157 E.02476
G1 X125.381 Y77.421 E.90286
M73 P2 R36
G1 X124.732 Y77.421 E.02476
G1 X142.117 Y94.806 E.93787
G1 X142.117 Y95.454 E.02472
G1 X124.083 Y77.421 E.97286
G1 X123.435 Y77.421 E.02472
G1 X142.117 Y96.103 E1.00784
G1 X142.117 Y96.752 E.02476
G1 X122.786 Y77.421 E1.04285
G1 X122.137 Y77.421 E.02476
G1 X142.117 Y97.401 E1.07786
G1 X142.117 Y98.05 E.02476
M73 P2 R35
G1 X121.488 Y77.421 E1.11288
G1 X120.839 Y77.421 E.02476
G1 X142.117 Y98.698 E1.14786
G1 X142.117 Y99.347 E.02476
G1 X120.191 Y77.421 E1.18284
G1 X119.542 Y77.421 E.02476
G1 X142.117 Y99.996 E1.21786
G1 X142.117 Y100.645 E.02476
G1 X118.893 Y77.421 E1.25287
G1 X118.244 Y77.421 E.02476
G1 X142.117 Y101.294 E1.28788
G1 X142.117 Y101.942 E.02472
G1 X127.021 Y86.847 E.81436
G1 X126.869 Y86.438 E.01664
G1 X126.756 Y86.223 E.00927
G1 X126.37 Y85.665 E.02588
G1 X126.209 Y85.482 E.0093
G1 X125.608 Y84.959 E.03039
G1 X124.902 Y84.58 E.03057
G1 X124.667 Y84.492 E.00957
M73 P3 R35
G1 X117.596 Y77.421 E.38146
G1 X116.947 Y77.421 E.02476
G1 X123.835 Y84.31 E.37161
G1 X123.179 Y84.302 E.02503
G1 X116.298 Y77.421 E.37121
G1 X115.649 Y77.421 E.02476
G1 X122.618 Y84.39 E.37596
G1 X122.196 Y84.494 E.01658
G1 X122.107 Y84.528 E.00363
G1 X115 Y77.421 E.3834
G1 X114.352 Y77.421 E.02472
G1 X121.671 Y84.74 E.39484
G1 X121.251 Y84.969 E.01825
G1 X113.703 Y77.421 E.40719
G1 X113.054 Y77.421 E.02476
G1 X120.907 Y85.274 E.42365
G1 X120.566 Y85.581 E.0175
G1 X112.405 Y77.421 E.44024
G1 X111.756 Y77.421 E.02476
G1 X120.301 Y85.966 E.46098
G1 X120.041 Y86.354 E.01782
G1 X111.108 Y77.421 E.48191
G1 X110.459 Y77.421 E.02476
G1 X119.859 Y86.821 E.5071
G1 X119.762 Y87.071 E.01023
G1 X119.703 Y87.314 E.00954
G1 X109.81 Y77.421 E.5337
G1 X109.161 Y77.421 E.02476
G1 X119.633 Y87.892 E.56491
G1 X119.622 Y88.224 E.01267
G1 X119.664 Y88.573 E.01341
G1 X108.307 Y77.215 E.6127
M204 P1000
G1 E-.64 F2100
;WIPE_START
G1 F9600
G1 X108.851 Y77.759 E-.16
;WIPE_END
G1 Z.4 F720
G1 X126.977 Y87.452 F12000
G1 Z.2 F720
G1 E.8 F1500
M204 P600
G1 F1200
G1 X142.117 Y102.591 E.81673
G1 X142.117 Y103.24 E.02476
G1 X127.233 Y88.356 E.80295
G1 X127.159 Y88.931 E.02212
G1 X142.117 Y103.889 E.80694
G1 X142.117 Y104.538 E.02476
G1 X127 Y89.42 E.81555
G1 X126.813 Y89.883 E.01905
G1 X142.117 Y105.186 E.82558
G1 X142.117 Y105.835 E.02476
G1 X126.553 Y90.271 E.83963
G1 X126.322 Y90.604 E.01546
G1 X126.281 Y90.648 E.00229
G1 X142.117 Y106.484 E.85431
G1 X142.117 Y107.133 E.02476
G1 X125.943 Y90.958 E.87257
G1 X125.701 Y91.172 E.01232
G1 X125.587 Y91.251 E.00529
G1 X142.117 Y107.781 E.89175
G1 X142.117 Y108.43 E.02476
G1 X125.168 Y91.482 E.91432
G1 X124.795 Y91.674 E.016
G1 X124.729 Y91.691 E.0026
G1 X142.117 Y109.079 E.93803
G1 X142.117 Y109.728 E.02476
G1 X124.212 Y91.823 E.96592
G1 X123.858 Y91.899 E.01381
G1 X123.639 Y91.898 E.00835
G1 X142.117 Y110.377 E.99686
G1 X142.117 Y111.025 E.02472
M73 P4 R35
G1 X122.714 Y91.623 E1.04671
M204 P1000
G1 E-.64 F2100
;WIPE_START
G1 F9600
G1 X123.258 Y92.167 E-.16
;WIPE_END
G1 Z.4 F720
G1 X107.658 Y77.215 F12000
G1 Z.2 F720
G1 E.8 F1500
M204 P600
G1 F1200
G1 X119.881 Y89.438 E.6594
G1 X120.033 Y89.84 E.01639
G1 X120.117 Y89.985 E.00639
G1 X120.549 Y90.605 E.02883
G1 X120.664 Y90.725 E.00634
G1 X121.169 Y91.172 E.02573
G1 X121.369 Y91.31 E.00927
G1 X122.018 Y91.649 E.02793
G1 X122.131 Y91.688 E.00456
G1 X142.117 Y111.674 E1.07819
G1 X142.117 Y112.323 E.02476
G1 X107.215 Y77.421 E1.88286
G1 X106.566 Y77.421 E.02476
G1 X142.117 Y112.972 E1.91787
G1 X142.117 Y113.621 E.02476
G1 X105.917 Y77.421 E1.95289
G1 X105.268 Y77.421 E.02476
G1 X142.117 Y114.269 E1.98787
G1 X142.117 Y114.918 E.02476
G1 X104.754 Y77.555 E2.01563
G1 X104.754 Y78.204 E.02476
G1 X142.117 Y115.567 E2.01563
G1 X142.117 Y116.216 E.02476
G1 X104.754 Y78.853 E2.01563
G1 X104.754 Y79.501 E.02472
G1 X142.117 Y116.865 E2.01565
G1 X142.117 Y117.513 E.02472
G1 X104.754 Y80.15 E2.01563
G1 X104.754 Y80.799 E.02476
G1 X142.117 Y118.162 E2.01563
G1 X142.117 Y118.811 E.02476
M73 P5 R34
G1 X104.754 Y81.448 E2.01563
G1 X104.754 Y82.097 E.02476
G1 X142.117 Y119.46 E2.01563
G1 X142.117 Y120.109 E.02476
G1 X104.754 Y82.745 E2.01565
G1 X104.754 Y83.394 E.02476
G1 X142.117 Y120.757 E2.01563
G1 X142.117 Y121.406 E.02476
G1 X104.754 Y84.043 E2.01563
G1 X104.754 Y84.692 E.02476
G1 X142.117 Y122.055 E2.01563
G1 X142.117 Y122.704 E.02476
G1 X104.754 Y85.341 E2.01563
G1 X104.754 Y85.989 E.02472
G1 X142.117 Y123.352 E2.01563
G1 X142.117 Y124.001 E.02476
M73 P6 R34
G1 X104.754 Y86.638 E2.01563
G1 X104.754 Y87.287 E.02476
G1 X142.117 Y124.65 E2.01563
G1 X142.117 Y124.784 E.00511
G1 X141.602 Y124.784 E.01965
G1 X104.754 Y87.936 E1.98784
G1 X104.754 Y88.585 E.02476
G1 X140.953 Y124.784 E1.95283
G1 X140.305 Y124.784 E.02472
G1 X104.754 Y89.233 E1.91787
G1 X104.754 Y89.882 E.02476
G1 X139.656 Y124.784 E1.88286
G1 X139.007 Y124.784 E.02476
G1 X126.99 Y112.767 E.64828
G1 X126.838 Y112.365 E.01639
G1 X126.753 Y112.22 E.00641
G1 X126.322 Y111.601 E.02877
M73 P7 R34
G1 X126.206 Y111.48 E.00639
G1 X125.701 Y111.033 E.02573
G1 X125.502 Y110.895 E.00924
G1 X124.852 Y110.556 E.02796
G1 X124.74 Y110.517 E.00452
G1 X104.754 Y90.531 E1.07819
G1 X104.754 Y91.18 E.02476
G1 X123.883 Y110.309 E1.03195
G1 X123.229 Y110.303 E.02495
G1 X104.754 Y91.828 E.99667
G1 X104.754 Y92.477 E.02476
G1 X122.657 Y110.38 E.96582
G1 X122.142 Y110.514 E.0203
G1 X104.754 Y93.126 E.93803
G1 X104.754 Y93.775 E.02476
G1 X121.7 Y110.721 E.91419
G1 X121.281 Y110.951 E.01823
G1 X104.754 Y94.424 E.89158
G1 X104.754 Y95.072 E.02472
G1 X120.929 Y111.248 E.87262
G1 X120.59 Y111.557 E.0175
G1 X104.754 Y95.721 E.85431
G1 X104.754 Y96.37 E.02476
G1 X120.318 Y111.934 E.83963
G1 X120.058 Y112.322 E.01782
G1 X104.754 Y97.019 E.82558
G1 X104.754 Y97.668 E.02476
M73 P7 R33
G1 X119.871 Y112.785 E.81552
G1 X119.762 Y113.072 E.01171
G1 X119.712 Y113.274 E.00794
G1 X104.754 Y98.316 E.80694
G1 X104.754 Y98.965 E.02476
G1 X119.638 Y113.849 E.80295
G1 X119.622 Y113.981 E.00507
G1 X119.622 Y114.224 E.00927
G1 X119.658 Y114.518 E.0113
G1 X104.548 Y99.408 E.81514
M204 P1000
M73 P8 R33
G1 E-.64 F2100
;WIPE_START
G1 F9600
G1 X105.092 Y99.952 E-.16
;WIPE_END
G1 Z.4 F720
G1 X126.971 Y113.396 F12000
G1 Z.2 F720
G1 E.8 F1500
M204 P600
G1 F1200
G1 X138.358 Y124.784 E.61432
G1 X137.709 Y124.784 E.02476
G1 X127.238 Y114.313 E.56488
G1 X127.167 Y114.89 E.02218
G1 X137.061 Y124.784 E.53375
G1 X136.412 Y124.784 E.02476
G1 X127.012 Y115.384 E.5071
G1 X126.83 Y115.851 E.01912
G1 X135.763 Y124.784 E.48191
G1 X135.114 Y124.784 E.02476
G1 X126.57 Y116.24 E.46092
G1 X126.305 Y116.624 E.0178
G1 X134.465 Y124.784 E.44021
G1 X133.817 Y124.784 E.02472
G1 X125.966 Y116.933 E.42354
G1 X125.702 Y117.172 E.01358
G1 X125.615 Y117.231 E.00401
G1 X133.168 Y124.784 E.40746
G1 X132.519 Y124.784 E.02476
G1 X125.202 Y117.467 E.39473
G1 X124.901 Y117.625 E.01297
G1 X124.764 Y117.677 E.00559
G1 X131.87 Y124.784 E.38338
G1 X131.222 Y124.784 E.02472
G1 X124.251 Y117.814 E.37604
G1 X123.951 Y117.887 E.01178
G1 X123.691 Y117.903 E.00994
G1 X130.573 Y124.784 E.37124
G1 X129.924 Y124.784 E.02476
G1 X122.784 Y117.644 E.38518
M204 P1000
G1 E-.64 F2100
;WIPE_START
G1 F9600
G1 X123.328 Y118.188 E-.16
;WIPE_END
G1 Z.4 F720
G1 X129.481 Y124.99 F12000
G1 Z.2 F720
G1 E.8 F1500
M204 P600
G1 F1200
G1 X122.204 Y117.713 E.39257
G1 X121.97 Y117.625 E.00954
G1 X121.369 Y117.31 E.02588
G1 X121.169 Y117.172 E.00927
G1 X120.572 Y116.634 E.03066
G1 X120.05 Y115.875 E.03514
G1 X119.854 Y115.362 E.02095
G1 X104.754 Y100.263 E.81457
G1 X104.754 Y100.912 E.02476
G1 X128.626 Y124.784 E1.28783
G1 X127.978 Y124.784 E.02472
G1 X104.754 Y101.56 E1.25287
G1 X104.754 Y102.209 E.02476
G1 X127.329 Y124.784 E1.21786
G1 X126.68 Y124.784 E.02476
G1 X104.754 Y102.858 E1.18284
G1 X104.754 Y103.507 E.02476
G1 X126.031 Y124.784 E1.14783
G1 X125.382 Y124.784 E.02476
G1 X104.754 Y104.155 E1.11285
G1 X104.754 Y104.804 E.02476
G1 X124.734 Y124.784 E1.07786
G1 X124.085 Y124.784 E.02476
G1 X104.754 Y105.453 E1.04285
G1 X104.754 Y106.102 E.02476
