; generated by PrusaSlicer 2.6.1 on 2024-01-20 at 19:22:22 UTC


;
;

;
;

;
;
; 

; external perimeters extrusion width = 0.45mm
; perimeters extrusion width = 0.45mm
; infill extrusion width = 0.45mm
; solid infill extrusion width = 0.45mm
; top infill extrusion width = 0.40mm
; first layer extrusion width = 0.50mm

M73 P0 R59
M201 X2500 Y2500 Z200 E2500 ; sets maximum accelerations, mm/sec^2
M203 X200 Y200 Z40 E100 ; sets maximum feedrates, mm / sec
M204 P2000 R1200 T2000 ; sets acceleration (P, T) and retract acceleration (R), mm/sec^2
M205 X8.00 Y8.00 Z2.00 E10.00 ; sets the jerk limits, mm/sec
M205 S0 T0 ; sets the minimum extruding and travel feed rate, mm/sec
;TYPE:Custom
M17 ; enable steppers
M862.3 P "MK4" ; printer model check
M862.1 P0.4 ; nozzle diameter check
M555 X90.6999 Y89.4776 W68.6437 H27.046

G90 ; use absolute coordinates
M83 ; extruder relative mode

M140 S60 ; set bed temp

M104 S170 ; set extruder temp for bed leveling
M109 R170 ; wait for temp


M84 E ; turn off E motor

G28 ; home all without mesh bed level

G1 X42 Y-4 Z5 F4800

M302 S160 ; lower cold extrusion limit to 160C


G1 E-2 F2400 ; retraction


M84 E ; turn off E motor

G29 P9 X10 Y-4 W32 H4

M106 S100

G0 Z40 F10000

M190 S60 ; wait for bed temp

M107

;
; MBL
;
M84 E ; turn off E motor
G29 P1 ; invalidate mbl & probe print area
G29 P1 X0 Y0 W50 H20 C ; probe near purge place
G29 P3.2 ; interpolate mbl probes
G29 P3.13 ; extrapolate mbl outside probe area
G29 A ; activate mbl

; prepare for purge
M104 S215
G0 X0 Y-4 Z15 F4800 ; move away and ready for the purge
M109 S215

G92 E0
M569 S0 E ; set spreadcycle mode for extruder

;
; Extrude purge line
;
G92 E0 ; reset extruder position
G1 E2 F2400 ; deretraction after the initial one before nozzle cleaning
G0 E7 X15 Z0.2 F500 ; purge
G0 X25 E4 F500 ; purge
G0 X35 E4 F650 ; purge
G0 X45 E4 F800 ; purge
G0 X48 Z0.05 F8000 ; wipe, move close to the bed
G0 X51 Z0.2 F8000 ; wipe, move quickly away from the bed

G92 E0
M221 S100 ; set flow to 100%
G21 ; set units to millimeters
G90 ; use absolute coordinates
M83 ; use relative distances for extrusion
M900 K0.05 ; Filament gcode



M142 S36 ; set heatbreak target temp
M107
;LAYER_CHANGE
;Z:0.2
;HEIGHT:0.2
;BEFORE_LAYER_CHANGE
G92 E0.0
;0.2


G1 E-.8 F2100
G1 Z.2 F720
;AFTER_LAYER_CHANGE
;0.2
; printing object v4 TWIN (LSSS).stl id:0 copy 0
G1 Z.4
G1 X144.181 Y100.863 F12000
G1 Z.2 F720
G1 E.8 F1500
M204 P600
;TYPE:Perimeter
;WIDTH:0.499999
G1 F1200
G1 X144.036 Y101.15 E.01222
G1 X143.798 Y101.747 E.02443
G1 X143.658 Y102.406 E.02561
G1 X143.616 Y102.974 E.02165
G1 X143.616 Y107.506 E.17224
G1 X143.644 Y108.027 E.01983
G1 X143.744 Y108.723 E.02672
G1 X143.954 Y109.364 E.02564
G1 X144.156 Y109.762 E.01696
G1 X144.519 Y110.341 E.02597
G1 X145.157 Y111.013 E.03522
G1 X145.924 Y111.534 E.03524
G1 X146.747 Y111.873 E.03383
G1 X147.406 Y112.013 E.02561
G1 X147.974 Y112.055 E.02165
G1 X153.709 Y112.049 E.21797
G1 X154.373 Y111.978 E.02538
G1 X154.799 Y111.866 E.01674
G1 X155.465 Y111.623 E.02694
G1 X156.241 Y111.146 E.03462
G1 X156.902 Y110.518 E.03465
G1 X157.417 Y109.766 E.03464
G1 X157.765 Y108.924 E.03463
;WIDTH:0.533653
G1 X157.855 Y108.577 E.01463
;WIDTH:0.567306
G1 X157.946 Y108.231 E.0156
G1 X157.949 Y108.273 E.00184
;WIDTH:0.560178
G1 X157.964 Y108.61 E.01451
;WIDTH:0.530089
G1 X157.979 Y108.946 E.01362
;WIDTH:0.499999
G1 X157.979 Y112.823 E.14735
G1 X157.908 Y112.885 E.00358
G1 X157.26 Y113.371 E.03079
G1 X156.665 Y113.755 E.02691
G1 X156.184 Y114.022 E.02091
G1 X155.497 Y114.343 E.02882
G1 X154.929 Y114.57 E.02325
G1 X153.939 Y114.866 E.03927
G1 X153.198 Y115.025 E.0288
G1 X152.231 Y115.137 E.037
G1 X151.312 Y115.155 E.03493
G1 X150.399 Y115.089 E.03479
G1 X149.704 Y114.981 E.02673
G1 X149.207 Y114.873 E.01933
G1 X148.383 Y114.631 E.03264
G1 X147.557 Y114.305 E.03375
G1 X147.088 Y114.082 E.01974
G1 X146.622 Y113.83 E.02013
G1 X145.998 Y113.436 E.02805
G1 X145.147 Y112.788 E.04065
G1 X144.757 Y112.438 E.01992
G1 X144.157 Y111.818 E.03279
G1 X143.565 Y111.092 E.0356
G1 X143.094 Y110.395 E.03197
G1 X142.687 Y109.669 E.03163
G1 X142.318 Y108.871 E.03341
G1 X142.044 Y108.35 E.02237
G1 X141.736 Y107.865 E.02184
G1 X141.22 Y107.259 E.03025
G1 X140.53 Y106.677 E.03431
G1 X139.856 Y106.267 E.02998
G1 X139.24 Y105.991 E.02565
G1 X138.662 Y105.817 E.02294
G1 X138.052 Y105.714 E.02351
G1 X137.404 Y105.664 E.0247
G1 X114.86 Y105.664 E.85681
G1 X114.705 Y105.672 E.0059
G1 X114.186 Y105.735 E.01987
G1 X113.752 Y105.863 E.0172
G1 X113.186 Y106.109 E.02346
G1 X112.576 Y106.55 E.02861
G1 X112.186 Y106.978 E.02201
G1 X111.897 Y107.421 E.0201
G1 X111.71 Y107.847 E.01768
G1 X111.326 Y108.882 E.04196
G1 X111.095 Y109.41 E.0219
G1 X110.636 Y110.255 E.03655
G1 X110.046 Y111.145 E.04058
G1 X109.697 Y111.589 E.02146
G1 X108.972 Y112.356 E.04011
G1 X108.571 Y112.73 E.02084
G1 X107.9 Y113.261 E.03252
G1 X107.446 Y113.572 E.02092
G1 X106.84 Y113.934 E.02683
G1 X106.385 Y114.169 E.01946
G1 X105.467 Y114.556 E.03786
G1 X104.755 Y114.791 E.0285
G1 X104.032 Y114.965 E.02826
G1 X103.316 Y115.082 E.02757
G1 X102.477 Y115.15 E.03199
G1 X101.872 Y115.154 E.02299
G1 X101.35 Y115.128 E.01986
G1 X100.836 Y115.076 E.01963
G1 X100.215 Y114.978 E.02389
G1 X99.404 Y114.787 E.03167
G1 X98.912 Y114.635 E.01957
G1 X98.254 Y114.387 E.02673
G1 X97.791 Y114.179 E.01929
G1 X96.993 Y113.735 E.03471
G1 X96.118 Y113.161 E.03977
G1 X95.723 Y112.85 E.01911
G1 X95.329 Y112.502 E.01998
G1 X94.966 Y112.149 E.01924
G1 X94.607 Y111.762 E.02006
G1 X94.173 Y111.232 E.02604
G1 X93.747 Y110.631 E.028
G1 X93.344 Y109.962 E.02968
G1 X93.106 Y109.511 E.01938
G1 X92.892 Y109.04 E.01966
G1 X92.701 Y108.56 E.01963
G1 X92.466 Y107.814 E.02973
G1 X92.281 Y107.089 E.02844
G1 X92.157 Y106.347 E.02859
G1 X92.083 Y105.599 E.02857
G1 X92.066 Y105.094 E.0192
G1 X92.086 Y104.38 E.02715
G1 X92.195 Y103.395 E.03766
G1 X92.285 Y102.89 E.0195
G1 X92.402 Y102.393 E.01941
G1 X92.543 Y101.902 E.01942
G1 X92.709 Y101.418 E.01945
G1 X92.9 Y100.942 E.01949
G1 X93.115 Y100.473 E.01961
G1 X93.36 Y100.005 E.02008
G1 X93.622 Y99.561 E.01959
G1 X93.899 Y99.141 E.01912
G1 X94.203 Y98.728 E.01949
G1 X94.529 Y98.328 E.01961
G1 X94.878 Y97.943 E.01975
G1 X95.246 Y97.576 E.01975
G1 X95.631 Y97.23 E.01967
G1 X96.172 Y96.799 E.02629
G1 X96.926 Y96.292 E.03453
G1 X97.393 Y96.022 E.0205
G1 X97.849 Y95.792 E.01941
G1 X98.314 Y95.586 E.01933
G1 X98.979 Y95.341 E.02693
G1 X99.698 Y95.14 E.02837
G1 X100.339 Y94.996 E.02497
G1 X100.838 Y94.919 E.01919
G1 X101.361 Y94.867 E.01998
G1 X101.891 Y94.842 E.02017
G1 X102.403 Y94.845 E.01946
G1 X102.912 Y94.875 E.01938
G1 X103.665 Y94.968 E.02884
G1 X104.5 Y95.143 E.03242
G1 X105.112 Y95.318 E.02419
G1 X105.869 Y95.597 E.03066
G1 X106.486 Y95.878 E.02577
G1 X107.513 Y96.47 E.04505
G1 X108.229 Y96.991 E.03365
G1 X108.682 Y97.366 E.02235
G1 X109.254 Y97.92 E.03026
G1 X109.734 Y98.456 E.02735
G1 X110.174 Y99.025 E.02734
G1 X110.679 Y99.812 E.03554
G1 X110.95 Y100.298 E.02115
G1 X111.416 Y101.342 E.04345
G1 X111.791 Y102.383 E.04205
G1 X112.042 Y102.849 E.02012
G1 X112.339 Y103.228 E.0183
G1 X112.72 Y103.618 E.02072
G1 X113.14 Y103.914 E.01953
G1 X113.686 Y104.174 E.02298
G1 X114.258 Y104.336 E.02259
G1 X114.86 Y104.393 E.02298
G1 X137.38 Y104.393 E.8559
G1 X137.916 Y104.355 E.02042
G1 X138.444 Y104.276 E.02029
G1 X139.172 Y104.071 E.02874
G1 X139.877 Y103.767 E.02918
G1 X140.432 Y103.438 E.02452
G1 X141.053 Y102.937 E.03033
G1 X141.669 Y102.241 E.03532
G1 X142.005 Y101.752 E.02255
G1 X142.301 Y101.169 E.02485
G1 X142.62 Y100.467 E.02931
G1 X142.966 Y99.833 E.02745
G1 X143.528 Y98.957 E.03956
G1 X144.051 Y98.316 E.03144
G1 X144.388 Y97.935 E.01933
G1 X144.912 Y97.42 E.02792
G1 X145.319 Y97.08 E.02016
G1 X145.933 Y96.613 E.02932
G1 X146.495 Y96.246 E.02551
G1 X147.074 Y95.928 E.02511
G1 X147.541 Y95.702 E.01972
G1 X148.29 Y95.404 E.03064
G1 X148.93 Y95.202 E.02551
G1 X150.016 Y94.963 E.04226
G1 X150.949 Y94.862 E.03567
G1 X151.635 Y94.843 E.02608
G1 X152.38 Y94.877 E.02834
G1 X153.282 Y94.995 E.03457
G1 X154.223 Y95.203 E.03663
G1 X155.109 Y95.493 E.03543
G1 X155.599 Y95.694 E.02013
G1 X156.411 Y96.099 E.03449
G1 X157.057 Y96.497 E.02884
G1 X157.542 Y96.829 E.02234
G1 X157.952 Y97.15 E.01979
G1 X157.979 Y97.207 E.0024
G1 X157.979 Y101.258 E.15396
;WIDTH:0.536327
G1 X157.961 Y101.567 E.0127
;WIDTH:0.572655
G1 X157.943 Y101.876 E.01363
;WIDTH:0.608982
G1 X157.925 Y102.184 E.01452
G1 X157.882 Y102.068 E.00582
;WIDTH:0.574393
G1 X157.84 Y101.951 E.00549
;WIDTH:0.539803
G1 X157.516 Y101.098 E.0377
;WIDTH:0.499999
G1 X157.039 Y100.322 E.03462
G1 X156.41 Y99.661 E.03468
G1 X155.659 Y99.146 E.03461
G1 X154.816 Y98.798 E.03466
G1 X154.157 Y98.658 E.02561
G1 X153.589 Y98.616 E.02165
G1 X148.795 Y98.616 E.1822
G1 X147.747 Y98.633 E.03984
G1 X146.957 Y98.742 E.03031
G1 X146.316 Y98.95 E.02561
G1 X145.893 Y99.166 E.01805
G1 X145.321 Y99.524 E.02565
G1 X144.661 Y100.152 E.03463
G1 X144.265 Y100.697 E.0256
G1 X144.209 Y100.809 E.00476
M204 P1000
G1 E-.64 F2100
;WIPE_START
G1 F9600
G1 X144.036 Y101.15 E-.07946
G1 X143.892 Y101.51 E-.08054
;WIPE_END
G1 Z.4 F720
G1 X115.002 Y103.935 F12000
G1 Z.2 F720
G1 E.8 F1500
M204 P600
G1 F1200
G1 X137.38 Y103.935 E.8505
G1 X137.683 Y103.914 E.01154
G1 X138.344 Y103.83 E.02532
G1 X139.009 Y103.644 E.02624
G1 X139.651 Y103.37 E.02653
G1 X140.151 Y103.078 E.02201
G1 X140.721 Y102.623 E.02772
G1 X141.154 Y102.167 E.0239
G1 X141.486 Y101.707 E.02156
G1 X141.782 Y101.205 E.02215
G1 X142.199 Y100.286 E.03836
G1 X142.454 Y99.796 E.02099
G1 X142.869 Y99.112 E.03041
G1 X143.162 Y98.683 E.01974
G1 X143.881 Y97.801 E.04325
G1 X144.396 Y97.271 E.02809
G1 X144.793 Y96.912 E.02034
G1 X145.553 Y96.316 E.03671
G1 X146.218 Y95.878 E.03026
G1 X146.728 Y95.589 E.02228
G1 X147.303 Y95.306 E.02436
G1 X148.076 Y94.992 E.03171
G1 X148.744 Y94.777 E.02667
G1 X149.433 Y94.609 E.02695
G1 X149.951 Y94.511 E.02004
G1 X150.918 Y94.406 E.03697
G1 X151.64 Y94.386 E.02745
G1 X152.42 Y94.422 E.02968
G1 X153.362 Y94.544 E.0361
G1 X154.344 Y94.762 E.03823
G1 X155.267 Y95.063 E.0369
G1 X155.788 Y95.277 E.02141
G1 X156.634 Y95.699 E.03593
G1 X157.404 Y96.174 E.03439
G1 X157.864 Y96.499 E.02141
G1 X158.437 Y96.967 E.02812
G1 X158.437 Y113.031 E.61053
G1 X158.201 Y113.236 E.01188
G1 X157.558 Y113.722 E.03063
G1 X156.948 Y114.12 E.02768
G1 X156.49 Y114.38 E.02002
G1 X155.913 Y114.665 E.02446
G1 X155.193 Y114.964 E.02963
G1 X154.458 Y115.206 E.02941
G1 X153.795 Y115.374 E.02599
G1 X153.266 Y115.478 E.02049
G1 X152.262 Y115.593 E.03841
G1 X151.3 Y115.613 E.03657
G1 X150.348 Y115.544 E.03628
G1 X149.62 Y115.431 E.028
G1 X149.094 Y115.316 E.02046
G1 X148.235 Y115.064 E.03402
G1 X147.334 Y114.709 E.03681
G1 X146.88 Y114.489 E.01917
G1 X146.391 Y114.225 E.02112
G1 X145.737 Y113.812 E.0294
G1 X144.855 Y113.141 E.04212
G1 X144.44 Y112.768 E.02121
G1 X143.815 Y112.122 E.03416
G1 X143.198 Y111.365 E.03712
G1 X142.705 Y110.635 E.03348
G1 X142.28 Y109.877 E.03303
G1 X141.903 Y109.063 E.03409
G1 X141.652 Y108.586 E.02049
G1 X141.384 Y108.156 E.01926
G1 X140.914 Y107.599 E.0277
G1 X140.277 Y107.058 E.03176
G1 X139.662 Y106.681 E.02742
G1 X139.108 Y106.429 E.02313
G1 X138.53 Y106.254 E.02295
G1 X137.985 Y106.166 E.02098
G1 X137.404 Y106.121 E.02215
G1 X114.86 Y106.121 E.85681
G1 X114.24 Y106.189 E.02371
G1 X113.912 Y106.291 E.01305
G1 X113.443 Y106.487 E.01932
G1 X113.006 Y106.783 E.02006
G1 X112.569 Y107.228 E.0237
G1 X112.211 Y107.81 E.02597
G1 X111.784 Y108.975 E.04716
G1 X111.521 Y109.582 E.02514
G1 X111.117 Y110.353 E.03308
G1 X110.497 Y111.309 E.04331
G1 X110.068 Y111.86 E.02654
G1 X109.528 Y112.459 E.03065
G1 X108.901 Y113.051 E.03277
G1 X108.199 Y113.61 E.03411
G1 X107.719 Y113.941 E.02216
G1 X107.09 Y114.32 E.02791
G1 X106.612 Y114.568 E.02047
G1 X105.874 Y114.894 E.03066
G1 X105.383 Y115.072 E.01985
G1 X104.876 Y115.231 E.02019
G1 X104.122 Y115.413 E.02948
G1 X103.372 Y115.536 E.02889
G1 X102.497 Y115.607 E.03336
G1 X101.826 Y115.612 E.0255
G1 X101.284 Y115.582 E.02063
G1 X100.777 Y115.529 E.01937
G1 X100.127 Y115.427 E.02501
G1 X99.299 Y115.232 E.03233
G1 X98.798 Y115.081 E.01989
G1 X98.117 Y114.827 E.02762
G1 X97.624 Y114.607 E.02052
G1 X97.15 Y114.366 E.02021
G1 X96.28 Y113.835 E.03874
G1 X95.851 Y113.532 E.01996
G1 X95.429 Y113.2 E.02041
G1 X94.991 Y112.813 E.02221
G1 X94.614 Y112.444 E.02005
G1 X94.262 Y112.062 E.01974
G1 X93.809 Y111.51 E.02714
G1 X93.364 Y110.881 E.02928
G1 X92.952 Y110.199 E.03028
G1 X92.696 Y109.712 E.02091
G1 X92.484 Y109.252 E.01925
G1 X92.285 Y108.756 E.02031
G1 X92.082 Y108.154 E.02415
G1 X91.844 Y107.237 E.03601
G1 X91.738 Y106.67 E.02192
G1 X91.669 Y106.135 E.0205
G1 X91.627 Y105.634 E.01911
G1 X91.609 Y105.095 E.0205
G1 X91.629 Y104.348 E.0284
G1 X91.748 Y103.276 E.04099
G1 X91.844 Y102.76 E.01995
G1 X91.968 Y102.242 E.02024
G1 X92.118 Y101.729 E.02031
G1 X92.293 Y101.224 E.02031
G1 X92.493 Y100.727 E.02036
G1 X92.72 Y100.238 E.02049
G1 X92.977 Y99.751 E.02093
G1 X93.234 Y99.318 E.01914
G1 X93.524 Y98.879 E.02
G1 X93.841 Y98.448 E.02033
G1 X94.183 Y98.03 E.02053
G1 X94.547 Y97.628 E.02061
G1 X94.932 Y97.244 E.02067
G1 X95.335 Y96.881 E.02061
G1 X95.902 Y96.43 E.02754
G1 X96.725 Y95.877 E.03768
G1 X97.177 Y95.619 E.01978
G1 X97.654 Y95.378 E.02031
G1 X98.142 Y95.163 E.02027
G1 X98.839 Y94.906 E.02823
G1 X99.787 Y94.641 E.03741
G1 X100.29 Y94.539 E.01951
G1 X100.815 Y94.46 E.02018
G1 X101.36 Y94.408 E.02081
G1 X101.882 Y94.385 E.01986
G1 X102.418 Y94.388 E.02037
G1 X102.954 Y94.42 E.02041
G1 X103.74 Y94.517 E.0301
G1 X104.609 Y94.699 E.03374
G1 X105.254 Y94.883 E.02549
G1 X106.043 Y95.175 E.03197
G1 X106.695 Y95.471 E.02721
G1 X107.776 Y96.096 E.04746
G1 X108.519 Y96.638 E.03495
G1 X108.997 Y97.035 E.02362
G1 X109.593 Y97.614 E.03158
G1 X110.095 Y98.175 E.02861
G1 X110.555 Y98.773 E.02867
G1 X111.077 Y99.587 E.03675
G1 X111.367 Y100.111 E.02276
G1 X111.848 Y101.194 E.04504
G1 X112.193 Y102.167 E.03924
G1 X112.538 Y102.766 E.02627
G1 X112.894 Y103.161 E.02021
G1 X113.353 Y103.509 E.02189
G1 X113.812 Y103.734 E.01943
G1 X114.36 Y103.89 E.02165
G1 X114.942 Y103.935 E.02219
M204 P1000
G1 X115.002 Y103.478 F12000
M204 P600
;TYPE:External perimeter
G1 F1200
G1 X137.38 Y103.478 E.8505
G1 X137.648 Y103.459 E.01021
G1 X138.245 Y103.384 E.02287
G1 X138.846 Y103.217 E.02371
G1 X139.425 Y102.972 E.02389
G1 X139.869 Y102.718 E.01944
G1 X140.39 Y102.308 E.0252
G1 X140.921 Y101.715 E.03025
G1 X141.366 Y101.017 E.03146
G1 X141.787 Y100.086 E.03883
G1 X142.055 Y99.571 E.02206
G1 X142.504 Y98.832 E.03286
G1 X142.796 Y98.408 E.01957
G1 X143.539 Y97.496 E.04471
G1 X144.079 Y96.942 E.0294
G1 X144.498 Y96.562 E.0215
G1 X145.285 Y95.944 E.03803
G1 X145.98 Y95.487 E.03161
G1 X146.515 Y95.185 E.02335
G1 X147.116 Y94.888 E.02548
G1 X147.92 Y94.562 E.03297
G1 X148.619 Y94.337 E.02791
G1 X149.325 Y94.165 E.02762
G1 X149.885 Y94.058 E.02167
G1 X150.887 Y93.95 E.0383
G1 X151.644 Y93.928 E.02878
G1 X152.46 Y93.966 E.03105
G1 X153.441 Y94.093 E.0376
G1 X154.465 Y94.321 E.03987
G1 X155.425 Y94.634 E.03838
G1 X155.977 Y94.861 E.02268
G1 X156.856 Y95.299 E.03733
G1 X157.713 Y95.828 E.03828
G1 X158.146 Y96.14 E.02028
G1 X158.894 Y96.759 E.0369
G1 X158.894 Y113.239 E.62634
G1 X158.489 Y113.591 E.02039
G1 X157.821 Y114.096 E.03183
G1 X157.186 Y114.511 E.02883
G1 X156.705 Y114.784 E.02102
G1 X156.102 Y115.082 E.02556
G1 X155.352 Y115.393 E.03086
G1 X154.586 Y115.645 E.03065
G1 X153.838 Y115.834 E.02932
G1 X153.335 Y115.93 E.01946
M73 P0 R58
G1 X152.293 Y116.05 E.03986
G1 X151.289 Y116.07 E.03817
G1 X150.296 Y115.998 E.03784
G1 X149.536 Y115.88 E.02923
G1 X148.98 Y115.759 E.02163
G1 X148.086 Y115.497 E.03541
G1 X147.15 Y115.128 E.03824
G1 X146.671 Y114.896 E.02023
G1 X146.16 Y114.62 E.02207
G1 X145.476 Y114.188 E.03075
G1 X144.564 Y113.493 E.04358
G1 X144.122 Y113.097 E.02255
G1 X143.473 Y112.426 E.03548
G1 X142.831 Y111.638 E.03863
G1 X142.316 Y110.875 E.03499
G1 X141.872 Y110.085 E.03444
G1 X141.37 Y109.002 E.04537
G1 X141.032 Y108.447 E.0247
G1 X140.609 Y107.939 E.02512
G1 X140.024 Y107.438 E.02927
G1 X139.585 Y107.15 E.01995
G1 X139.008 Y106.878 E.02424
G1 X138.498 Y106.722 E.02027
G1 X137.918 Y106.618 E.0224
